plugins/woocommerce/packages/woocommerce-admin/images/admin_notes/filter-by-product-variations-note.svg

<svg width="598" height="235" fill="none" xmlns="http://www.w3.org/2000/svg"><path d="M0 2a2 2 0 0 1 2-2h594a2 2 0 0 1 2 2v233H0V2z" fill="#F0F0F0"/><path fill="#F0F0F0" d="M32 19h533v198H32z"/><path d="M183.37 197.791H54.188V36.731h155.314v138.685l-26.132 22.375z" fill="#fff"/><path d="M183 175v23l26.5-22.5-26.5-.5z" fill="#DDD"/><path d="M350.025 197.791H220.843V36.731h155.314v138.685l-26.132 22.375z" fill="#fff"/><path d="M350 175v23l26.5-22.5-26.5-.5z" fill="#DDD"/><path d="M516.187 197.791H387.005V36.731h155.314v138.685l-26.132 22.375z" fill="#fff"/><path d="M516 175v23l26.5-22.5-26.5-.5z" fill="#DDD"/><path d="M131.589 181.507c10.343 0 18.727-8.373 18.727-18.701 0-10.329-8.384-18.702-18.727-18.702s-18.727 8.373-18.727 18.702c0 10.328 8.384 18.701 18.727 18.701z" fill="#F0F0F0"/><path d="M138.897 174.918h-14.006c1.815-8.401 1.81-15.168.364-20.64a1.462 1.462 0 0 1 .891-1.738l3.768-1.447c1.131 1.459 2.727 2.096 5.216 1.157l1.974.405a2.029 2.029 0 0 1 1.62 2.118c-.146 2.14-.088 4.297-.214 6.158-.387 5.765-.554 10.259.387 13.987z" fill="#F0B849"/><path d="m138.317 161.413 3.767-1.736-.193-1.367a5.601 5.601 0 0 0-.983-3.17 5.62 5.62 0 0 0-2.604-2.061l-1.146-.443 1.159 8.777zM125.857 161.028l-3.767-1.736.193-1.367a5.609 5.609 0 0 1 3.587-5.231l1.146-.444-1.159 8.778z" fill="#F0B849"/><path d="M298.244 181.507c10.343 0 18.727-8.373 18.727-18.701 0-10.329-8.384-18.702-18.727-18.702s-18.727 8.373-18.727 18.702c0 10.328 8.384 18.701 18.727 18.701z" fill="#F0F0F0"/><path d="M305.552 174.918h-14.006c1.815-8.401 1.81-15.168.364-20.64a1.462 1.462 0 0 1 .891-1.738l3.768-1.447c1.131 1.459 2.727 2.096 5.216 1.157l1.974.405a2.029 2.029 0 0 1 1.619 2.118c-.145 2.14-.088 4.297-.213 6.158-.387 5.765-.554 10.259.387 13.987z" fill="#1E1E1E"/><path d="m304.972 161.413 3.767-1.736-.193-1.367a5.609 5.609 0 0 0-3.587-5.231l-1.146-.443 1.159 8.777zM292.512 161.028l-3.767-1.736.193-1.367a5.609 5.609 0 0 1 3.587-5.231l1.146-.444-1.159 8.778z" fill="#1E1E1E"/><path d="M464.406 181.507c10.343 0 18.727-8.373 18.727-18.701 0-10.329-8.384-18.702-18.727-18.702s-18.727 8.373-18.727 18.702c0 10.328 8.384 18.701 18.727 18.701z" fill="#F0F0F0"/><path d="M471.714 174.918h-14.006c1.815-8.401 1.81-15.168.364-20.64a1.462 1.462 0 0 1 .89-1.738l3.769-1.447c1.131 1.459 2.727 2.096 5.215 1.157l1.975.405a2.029 2.029 0 0 1 1.619 2.118c-.145 2.14-.088 4.297-.213 6.158-.387 5.765-.554 10.259.387 13.987z" fill="#4AB866"/><path d="m471.134 161.413 3.767-1.736-.193-1.367a5.609 5.609 0 0 0-3.587-5.231l-1.146-.443 1.159 8.777zM458.674 161.028l-3.767-1.736.193-1.367c0-1.131.342-2.236.983-3.17a5.62 5.62 0 0 1 2.604-2.061l1.146-.444-1.159 8.778z" fill="#4AB866"/><path fill="#FAFAFA" d="M54.188 36.731h155.315v93.582H54.188z"/><path d="M81.8 102.379h100.316" stroke="#7983A6" stroke-miterlimit="10"/><g opacity=".5" stroke="#7983A6" stroke-miterlimit="10"><path opacity=".5" d="M81.8 91.179h1.598"/><path opacity=".5" d="M86.537 91.178h92.568" stroke-dasharray="4 4"/><path opacity=".5" d="M180.674 91.178h1.599"/></g><g opacity=".5" stroke="#7983A6" stroke-miterlimit="10"><path opacity=".5" d="M81.8 80.26h1.598"/><path opacity=".5" d="M86.537 80.26h92.568" stroke-dasharray="4 4"/><path opacity=".5" d="M180.674 80.26h1.599"/></g><g opacity=".5" stroke="#7983A6" stroke-miterlimit="10"><path opacity=".5" d="M81.8 69.34h1.598"/><path opacity=".5" d="M86.537 69.34h92.568" stroke-dasharray="4 4"/><path opacity=".5" d="M180.674 69.34h1.599"/></g><g opacity=".5" stroke="#7983A6" stroke-miterlimit="10"><path opacity=".5" d="M81.8 58.422h1.598"/><path opacity=".5" d="M86.537 58.422h92.568" stroke-dasharray="4 4"/><path opacity=".5" d="M180.674 58.422h1.599"/></g><g opacity=".3"><path opacity=".65" d="M94.01 80.26H86.8V102.1h7.21V80.26z" fill="#007CBA"/></g><path d="M114.402 69.184h-7.524v33.195h7.524V69.184z" fill="#007CBA"/><g opacity=".3"><path opacity=".65" d="M134.246 91.061h-7.21v11.267h7.21V91.061z" fill="#007CBA"/></g><path d="M154.529 57.91h-7.524v44.469h7.524V57.911z" fill="#007CBA"/><g opacity=".3"><path opacity=".65" d="M174.479 68.76h-7.21v33.339h7.21v-33.34z" fill="#007CBA"/></g><path d="M90.422 108.958a1.725 1.725 0 1 0 .001-3.45 1.725 1.725 0 0 0-.001 3.45zM110.485 108.958a1.725 1.725 0 1 0 .002-3.45 1.725 1.725 0 0 0-.002 3.45zM130.549 108.958a1.724 1.724 0 1 0-1.726-1.724c0 .952.772 1.724 1.726 1.724zM151.239 108.958a1.725 1.725 0 1 0 .002-3.45 1.725 1.725 0 0 0-.002 3.45zM171.302 108.958a1.725 1.725 0 1 0 .002-3.45 1.725 1.725 0 0 0-.002 3.45z" fill="#007CBA"/><path fill="#FAFAFA" d="M220.843 36.731h155.315v93.582H220.843z"/><path d="M248.454 102.379h100.317" stroke="#7983A6" stroke-miterlimit="10"/><g opacity=".5" stroke="#7983A6" stroke-miterlimit="10"><path opacity=".5" d="M248.454 91.179h1.599"/><path opacity=".5" d="M253.192 91.178h92.568" stroke-dasharray="4 4"/><path opacity=".5" d="M347.329 91.178h1.599"/></g><g opacity=".5" stroke="#7983A6" stroke-miterlimit="10"><path opacity=".5" d="M248.454 80.26h1.599"/><path opacity=".5" d="M253.192 80.26h92.568" stroke-dasharray="4 4"/><path opacity=".5" d="M347.329 80.26h1.599"/></g><g opacity=".5" stroke="#7983A6" stroke-miterlimit="10"><path opacity=".5" d="M248.454 69.34h1.599"/><path opacity=".5" d="M253.192 69.34h92.568" stroke-dasharray="4 4"/><path opacity=".5" d="M347.329 69.34h1.599"/></g><g opacity=".5" stroke="#7983A6" stroke-miterlimit="10"><path opacity=".5" d="M248.454 58.422h1.599"/><path opacity=".5" d="M253.192 58.422h92.568" stroke-dasharray="4 4"/><path opacity=".5" d="M347.329 58.422h1.599"/></g><g opacity=".3"><path opacity=".65" d="M261 86h-8v16h8V86z" fill="#007CBA"/></g><path d="M281 61h-7v41h7V61z" fill="#007CBA"/><g opacity=".3"><path opacity=".65" d="M301 73h-7v29.001h7v-29z" fill="#007CBA"/></g><path d="M321 69h-7v33h7V69z" fill="#007CBA"/><g opacity=".3"><path opacity=".65" d="M341 61h-7v41.001h7v-41z" fill="#007CBA"/></g><path d="M257.077 108.958a1.724 1.724 0 1 0 .001-3.449 1.724 1.724 0 0 0-.001 3.449zM277.14 108.958a1.725 1.725 0 1 0 .002-3.45 1.725 1.725 0 0 0-.002 3.45zM297.203 108.958a1.725 1.725 0 1 0 .003-3.45 1.725 1.725 0 0 0-.003 3.45zM317.894 108.958a1.725 1.725 0 1 0 .002-3.45 1.725 1.725 0 0 0-.002 3.45zM337.957 108.958a1.725 1.725 0 1 0 .002-3.45 1.725 1.725 0 0 0-.002 3.45z" fill="#007CBA"/><path fill="#FAFAFA" d="M387.005 36.731H542.32v93.582H387.005z"/><path d="M414.616 102.379h100.317" stroke="#7983A6" stroke-miterlimit="10"/><g opacity=".5" stroke="#7983A6" stroke-miterlimit="10"><path opacity=".5" d="M414.616 91.179h1.599"/><path opacity=".5" d="M419.354 91.178h92.568" stroke-dasharray="4 4"/><path opacity=".5" d="M513.491 91.178h1.599"/></g><g opacity=".5" stroke="#7983A6" stroke-miterlimit="10"><path opacity=".5" d="M414.616 80.26h1.599"/><path opacity=".5" d="M419.354 80.26h92.568" stroke-dasharray="4 4"/><path opacity=".5" d="M513.491 80.26h1.599"/></g><g opacity=".5" stroke="#7983A6" stroke-miterlimit="10"><path opacity=".5" d="M414.616 69.34h1.599"/><path opacity=".5" d="M419.354 69.34h92.568" stroke-dasharray="4 4"/><path opacity=".5" d="M513.491 69.34h1.599"/></g><g opacity=".5" stroke="#7983A6" stroke-miterlimit="10"><path opacity=".5" d="M414.616 58.422h1.599"/><path opacity=".5" d="M419.354 58.422h92.568" stroke-dasharray="4 4"/><path opacity=".5" d="M513.491 58.422h1.599"/></g><g opacity=".3"><path opacity=".65" d="M427 63h-7v39h7V63z" fill="#007CBA"/></g><path d="M447 65h-7v37h7V65z" fill="#007CBA"/><g opacity=".3"><path opacity=".65" d="M467 80h-7v22.001h7v-22z" fill="#007CBA"/></g><path d="M487 91h-7v11h7V91z" fill="#007CBA"/><g opacity=".3"><path opacity=".65" d="M507 80h-7v22.001h7v-22z" fill="#007CBA"/></g><path d="M423.239 108.958a1.724 1.724 0 1 0 .001-3.449 1.724 1.724 0 0 0-.001 3.449zM443.302 108.958a1.725 1.725 0 1 0 .002-3.45 1.725 1.725 0 0 0-.002 3.45zM463.365 108.958a1.725 1.725 0 1 0 .002-3.45 1.725 1.725 0 0 0-.002 3.45zM484.056 108.958a1.724 1.724 0 1 0 .001-3.449 1.724 1.724 0 0 0-.001 3.449zM504.119 108.958a1.725 1.725 0 1 0 .002-3.45 1.725 1.725 0 0 0-.002 3.45z" fill="#007CBA"/></svg>

<svg width="598" height="235" viewBox="0 0 598 235" fill="none" xmlns="http://www.w3.org/2000/svg">
<path d="M0 2C0 0.895433 0.895431 0 2 0H596C597.105 0 598 0.89543 598 2V235H0V2Z" fill="#F0F0F0"/>
<rect width="533" height="198" transform="translate(32 19)" fill="#F0F0F0"/>
<path d="M183.37 197.791H54.1878V36.7313H209.502V175.416L183.37 197.791Z" fill="white"/>
<path d="M183 175V198L209.5 175.5L183 175Z" fill="#DDDDDD"/>
<path d="M350.025 197.791H220.843V36.7313H376.157V175.416L350.025 197.791Z" fill="white"/>
<path d="M350 175V198L376.5 175.5L350 175Z" fill="#DDDDDD"/>
<path d="M516.187 197.791H387.005V36.7313H542.319V175.416L516.187 197.791Z" fill="white"/>
<path d="M516 175V198L542.5 175.5L516 175Z" fill="#DDDDDD"/>
<path d="M131.589 181.507C141.932 181.507 150.316 173.134 150.316 162.806C150.316 152.477 141.932 144.104 131.589 144.104C121.246 144.104 112.862 152.477 112.862 162.806C112.862 173.134 121.246 181.507 131.589 181.507Z" fill="#F0F0F0"/>
<path d="M138.897 174.918H124.891C126.706 166.517 126.701 159.75 125.255 154.278C125.163 153.93 125.203 153.56 125.367 153.239C125.532 152.918 125.809 152.669 126.146 152.54L129.914 151.093C131.045 152.552 132.641 153.189 135.13 152.25L137.104 152.655C137.585 152.753 138.014 153.021 138.312 153.411C138.61 153.8 138.756 154.284 138.724 154.773C138.578 156.913 138.636 159.07 138.51 160.931C138.123 166.696 137.956 171.19 138.897 174.918Z" fill="#F0B849"/>
<path d="M138.317 161.413L142.084 159.677L141.891 158.31C141.891 157.179 141.549 156.074 140.908 155.14C140.268 154.207 139.36 153.488 138.304 153.079L137.158 152.636L138.317 161.413Z" fill="#F0B849"/>
<path d="M125.857 161.028L122.09 159.292L122.283 157.925C122.283 156.794 122.626 155.689 123.266 154.755C123.906 153.822 124.814 153.103 125.87 152.694L127.016 152.25L125.857 161.028Z" fill="#F0B849"/>
<path d="M298.244 181.507C308.587 181.507 316.971 173.134 316.971 162.806C316.971 152.477 308.587 144.104 298.244 144.104C287.901 144.104 279.517 152.477 279.517 162.806C279.517 173.134 287.901 181.507 298.244 181.507Z" fill="#F0F0F0"/>
<path d="M305.552 174.918H291.546C293.361 166.517 293.356 159.75 291.91 154.278C291.818 153.93 291.858 153.56 292.022 153.239C292.187 152.918 292.464 152.669 292.801 152.54L296.569 151.093C297.7 152.552 299.296 153.189 301.785 152.25L303.759 152.655C304.24 152.753 304.669 153.021 304.967 153.411C305.264 153.8 305.411 154.284 305.378 154.773C305.233 156.913 305.29 159.07 305.165 160.931C304.778 166.696 304.611 171.19 305.552 174.918Z" fill="#1E1E1E"/>
<path d="M304.972 161.413L308.739 159.677L308.546 158.31C308.546 157.179 308.203 156.074 307.563 155.14C306.923 154.207 306.015 153.488 304.959 153.079L303.813 152.636L304.972 161.413Z" fill="#1E1E1E"/>
<path d="M292.512 161.028L288.745 159.292L288.938 157.925C288.938 156.794 289.281 155.689 289.921 154.755C290.561 153.822 291.469 153.103 292.525 152.694L293.671 152.25L292.512 161.028Z" fill="#1E1E1E"/>
<path d="M464.406 181.507C474.749 181.507 483.133 173.134 483.133 162.806C483.133 152.477 474.749 144.104 464.406 144.104C454.063 144.104 445.679 152.477 445.679 162.806C445.679 173.134 454.063 181.507 464.406 181.507Z" fill="#F0F0F0"/>
<path d="M471.714 174.918H457.708C459.523 166.517 459.518 159.75 458.072 154.278C457.98 153.93 458.02 153.56 458.184 153.239C458.349 152.918 458.626 152.669 458.962 152.54L462.731 151.093C463.862 152.552 465.458 153.189 467.946 152.25L469.921 152.655C470.402 152.753 470.831 153.021 471.129 153.411C471.426 153.8 471.573 154.284 471.54 154.773C471.395 156.913 471.452 159.07 471.327 160.931C470.94 166.696 470.773 171.19 471.714 174.918Z" fill="#4AB866"/>
<path d="M471.134 161.413L474.901 159.677L474.708 158.31C474.708 157.179 474.365 156.074 473.725 155.14C473.085 154.207 472.177 153.488 471.121 153.079L469.975 152.636L471.134 161.413Z" fill="#4AB866"/>
<path d="M458.674 161.028L454.907 159.292L455.1 157.925C455.1 156.794 455.442 155.689 456.083 154.755C456.723 153.822 457.631 153.103 458.687 152.694L459.833 152.25L458.674 161.028Z" fill="#4AB866"/>
<rect width="155.315" height="93.5821" transform="translate(54.1878 36.7314)" fill="#FAFAFA"/>
<path d="M81.7993 102.379H182.116" stroke="#7983A6" stroke-miterlimit="10"/>
<g opacity="0.5">
<path opacity="0.5" d="M81.7993 91.1788H83.3979" stroke="#7983A6" stroke-miterlimit="10"/>
<path opacity="0.5" d="M86.5367 91.1783H179.105" stroke="#7983A6" stroke-miterlimit="10" stroke-dasharray="4 4"/>
<path opacity="0.5" d="M180.674 91.1783H182.273" stroke="#7983A6" stroke-miterlimit="10"/>
</g>
<g opacity="0.5">
<path opacity="0.5" d="M81.7993 80.2604H83.3979" stroke="#7983A6" stroke-miterlimit="10"/>
<path opacity="0.5" d="M86.5367 80.2602H179.105" stroke="#7983A6" stroke-miterlimit="10" stroke-dasharray="4 4"/>
<path opacity="0.5" d="M180.674 80.2602H182.273" stroke="#7983A6" stroke-miterlimit="10"/>
</g>
<g opacity="0.5">
<path opacity="0.5" d="M81.7993 69.3406H83.3979" stroke="#7983A6" stroke-miterlimit="10"/>
<path opacity="0.5" d="M86.5367 69.3404H179.105" stroke="#7983A6" stroke-miterlimit="10" stroke-dasharray="4 4"/>
<path opacity="0.5" d="M180.674 69.3404H182.273" stroke="#7983A6" stroke-miterlimit="10"/>
</g>
<g opacity="0.5">
<path opacity="0.5" d="M81.7993 58.4222H83.3979" stroke="#7983A6" stroke-miterlimit="10"/>
<path opacity="0.5" d="M86.5367 58.4225H179.105" stroke="#7983A6" stroke-miterlimit="10" stroke-dasharray="4 4"/>
<path opacity="0.5" d="M180.674 58.4225H182.273" stroke="#7983A6" stroke-miterlimit="10"/>
</g>
<g opacity="0.3">
<path opacity="0.65" d="M94.0104 80.2602H86.8004V102.099H94.0104V80.2602Z" fill="#007CBA"/>
</g>
<path d="M114.402 69.1841H106.878V102.379H114.402V69.1841Z" fill="#007CBA"/>
<g opacity="0.3">
<path opacity="0.65" d="M134.246 91.0613H127.036V102.328H134.246V91.0613Z" fill="#007CBA"/>
</g>
<path d="M154.529 57.9106H147.005V102.379H154.529V57.9106Z" fill="#007CBA"/>
<g opacity="0.3">
<path opacity="0.65" d="M174.479 68.7594H167.269V102.099H174.479V68.7594Z" fill="#007CBA"/>
</g>
<path d="M90.4218 108.958C91.3749 108.958 92.1475 108.186 92.1475 107.234C92.1475 106.282 91.3749 105.51 90.4218 105.51C89.4687 105.51 88.6961 106.282 88.6961 107.234C88.6961 108.186 89.4687 108.958 90.4218 108.958Z" fill="#007CBA"/>
<path d="M110.485 108.958C111.438 108.958 112.211 108.186 112.211 107.234C112.211 106.282 111.438 105.51 110.485 105.51C109.532 105.51 108.759 106.282 108.759 107.234C108.759 108.186 109.532 108.958 110.485 108.958Z" fill="#007CBA"/>
<path d="M130.549 108.958C131.502 108.958 132.274 108.186 132.274 107.234C132.274 106.282 131.502 105.51 130.549 105.51C129.595 105.51 128.823 106.282 128.823 107.234C128.823 108.186 129.595 108.958 130.549 108.958Z" fill="#007CBA"/>
<path d="M151.239 108.958C152.192 108.958 152.965 108.186 152.965 107.234C152.965 106.282 152.192 105.51 151.239 105.51C150.286 105.51 149.513 106.282 149.513 107.234C149.513 108.186 150.286 108.958 151.239 108.958Z" fill="#007CBA"/>
<path d="M171.302 108.958C172.255 108.958 173.028 108.186 173.028 107.234C173.028 106.282 172.255 105.51 171.302 105.51C170.349 105.51 169.576 106.282 169.576 107.234C169.576 108.186 170.349 108.958 171.302 108.958Z" fill="#007CBA"/>
<rect width="155.315" height="93.5821" transform="translate(220.843 36.7314)" fill="#FAFAFA"/>
<path d="M248.454 102.379H348.771" stroke="#7983A6" stroke-miterlimit="10"/>
<g opacity="0.5">
<path opacity="0.5" d="M248.454 91.1788H250.053" stroke="#7983A6" stroke-miterlimit="10"/>
<path opacity="0.5" d="M253.192 91.1783H345.76" stroke="#7983A6" stroke-miterlimit="10" stroke-dasharray="4 4"/>
<path opacity="0.5" d="M347.329 91.1783H348.928" stroke="#7983A6" stroke-miterlimit="10"/>
</g>
<g opacity="0.5">
<path opacity="0.5" d="M248.454 80.2604H250.053" stroke="#7983A6" stroke-miterlimit="10"/>
<path opacity="0.5" d="M253.192 80.2602H345.76" stroke="#7983A6" stroke-miterlimit="10" stroke-dasharray="4 4"/>
<path opacity="0.5" d="M347.329 80.2602H348.928" stroke="#7983A6" stroke-miterlimit="10"/>
</g>
<g opacity="0.5">
<path opacity="0.5" d="M248.454 69.3406H250.053" stroke="#7983A6" stroke-miterlimit="10"/>
<path opacity="0.5" d="M253.192 69.3403H345.76" stroke="#7983A6" stroke-miterlimit="10" stroke-dasharray="4 4"/>
<path opacity="0.5" d="M347.329 69.3403H348.928" stroke="#7983A6" stroke-miterlimit="10"/>
</g>
<g opacity="0.5">
<path opacity="0.5" d="M248.454 58.4222H250.053" stroke="#7983A6" stroke-miterlimit="10"/>
<path opacity="0.5" d="M253.192 58.4224H345.76" stroke="#7983A6" stroke-miterlimit="10" stroke-dasharray="4 4"/>
<path opacity="0.5" d="M347.329 58.4224H348.928" stroke="#7983A6" stroke-miterlimit="10"/>
</g>
<g opacity="0.3">
<path opacity="0.65" d="M261 86.0004H253V102H261V86.0004Z" fill="#007CBA"/>
</g>
<path d="M281 61.0004H274V102H281V61.0004Z" fill="#007CBA"/>
<g opacity="0.3">
<path opacity="0.65" d="M301 73.0007H294V102.001H301V73.0007Z" fill="#007CBA"/>
</g>
<path d="M321 69.0003H314V102H321V69.0003Z" fill="#007CBA"/>
<g opacity="0.3">
<path opacity="0.65" d="M341 61.0006H334V102.001H341V61.0006Z" fill="#007CBA"/>
</g>
<path d="M257.077 108.958C258.03 108.958 258.802 108.186 258.802 107.234C258.802 106.282 258.03 105.51 257.077 105.51C256.124 105.51 255.351 106.282 255.351 107.234C255.351 108.186 256.124 108.958 257.077 108.958Z" fill="#007CBA"/>
<path d="M277.14 108.958C278.093 108.958 278.866 108.186 278.866 107.234C278.866 106.282 278.093 105.51 277.14 105.51C276.187 105.51 275.414 106.282 275.414 107.234C275.414 108.186 276.187 108.958 277.14 108.958Z" fill="#007CBA"/>
<path d="M297.203 108.958C298.157 108.958 298.929 108.186 298.929 107.234C298.929 106.282 298.157 105.51 297.203 105.51C296.25 105.51 295.478 106.282 295.478 107.234C295.478 108.186 296.25 108.958 297.203 108.958Z" fill="#007CBA"/>
<path d="M317.894 108.958C318.847 108.958 319.62 108.186 319.62 107.234C319.62 106.282 318.847 105.51 317.894 105.51C316.941 105.51 316.168 106.282 316.168 107.234C316.168 108.186 316.941 108.958 317.894 108.958Z" fill="#007CBA"/>
<path d="M337.957 108.958C338.91 108.958 339.683 108.186 339.683 107.234C339.683 106.282 338.91 105.51 337.957 105.51C337.004 105.51 336.231 106.282 336.231 107.234C336.231 108.186 337.004 108.958 337.957 108.958Z" fill="#007CBA"/>
<rect width="155.315" height="93.5821" transform="translate(387.005 36.7314)" fill="#FAFAFA"/>
<path d="M414.616 102.379H514.933" stroke="#7983A6" stroke-miterlimit="10"/>
<g opacity="0.5">
<path opacity="0.5" d="M414.616 91.1788H416.215" stroke="#7983A6" stroke-miterlimit="10"/>
<path opacity="0.5" d="M419.354 91.1783H511.922" stroke="#7983A6" stroke-miterlimit="10" stroke-dasharray="4 4"/>
<path opacity="0.5" d="M513.491 91.1783H515.09" stroke="#7983A6" stroke-miterlimit="10"/>
</g>
<g opacity="0.5">
<path opacity="0.5" d="M414.616 80.2604H416.215" stroke="#7983A6" stroke-miterlimit="10"/>
<path opacity="0.5" d="M419.354 80.2602H511.922" stroke="#7983A6" stroke-miterlimit="10" stroke-dasharray="4 4"/>
<path opacity="0.5" d="M513.491 80.2602H515.09" stroke="#7983A6" stroke-miterlimit="10"/>
</g>
<g opacity="0.5">
<path opacity="0.5" d="M414.616 69.3406H416.215" stroke="#7983A6" stroke-miterlimit="10"/>
<path opacity="0.5" d="M419.354 69.3403H511.922" stroke="#7983A6" stroke-miterlimit="10" stroke-dasharray="4 4"/>
<path opacity="0.5" d="M513.491 69.3403H515.09" stroke="#7983A6" stroke-miterlimit="10"/>
</g>
<g opacity="0.5">
<path opacity="0.5" d="M414.616 58.4222H416.215" stroke="#7983A6" stroke-miterlimit="10"/>
<path opacity="0.5" d="M419.354 58.4224H511.922" stroke="#7983A6" stroke-miterlimit="10" stroke-dasharray="4 4"/>
<path opacity="0.5" d="M513.491 58.4224H515.09" stroke="#7983A6" stroke-miterlimit="10"/>
</g>
<g opacity="0.3">
<path opacity="0.65" d="M427 63.0004H420V102H427V63.0004Z" fill="#007CBA"/>
</g>
<path d="M447 65.0004H440V102H447V65.0004Z" fill="#007CBA"/>
<g opacity="0.3">
<path opacity="0.65" d="M467 80.0007H460V102.001H467V80.0007Z" fill="#007CBA"/>
</g>
<path d="M487 91.0003H480V102H487V91.0003Z" fill="#007CBA"/>
<g opacity="0.3">
<path opacity="0.65" d="M507 80.0006H500V102.001H507V80.0006Z" fill="#007CBA"/>
</g>
<path d="M423.239 108.958C424.192 108.958 424.964 108.186 424.964 107.234C424.964 106.282 424.192 105.51 423.239 105.51C422.286 105.51 421.513 106.282 421.513 107.234C421.513 108.186 422.286 108.958 423.239 108.958Z" fill="#007CBA"/>
<path d="M443.302 108.958C444.255 108.958 445.028 108.186 445.028 107.234C445.028 106.282 444.255 105.51 443.302 105.51C442.349 105.51 441.576 106.282 441.576 107.234C441.576 108.186 442.349 108.958 443.302 108.958Z" fill="#007CBA"/>
<path d="M463.365 108.958C464.318 108.958 465.091 108.186 465.091 107.234C465.091 106.282 464.318 105.51 463.365 105.51C462.412 105.51 461.64 106.282 461.64 107.234C461.64 108.186 462.412 108.958 463.365 108.958Z" fill="#007CBA"/>
<path d="M484.056 108.958C485.009 108.958 485.781 108.186 485.781 107.234C485.781 106.282 485.009 105.51 484.056 105.51C483.103 105.51 482.33 106.282 482.33 107.234C482.33 108.186 483.103 108.958 484.056 108.958Z" fill="#007CBA"/>
<path d="M504.119 108.958C505.072 108.958 505.845 108.186 505.845 107.234C505.845 106.282 505.072 105.51 504.119 105.51C503.166 105.51 502.393 106.282 502.393 107.234C502.393 108.186 503.166 108.958 504.119 108.958Z" fill="#007CBA"/>
</svg>
